!!!!SEGMENT: pl-wn--mus-iii-75-728-cim--001_sowinski-wojciech--la-mort-du-colonel.krn
!!!cenid: 18xx:3590
!!!COM: Sowiński, Wojciech
!!!COM-rismID: pe30008543
!!!CDT: ~1803-1880/03/05
!!!CNT:
!!!OTL: La mort du colonel
!!!PDT: 1833
!!!AGN:
!!!SMS-siglum: PL-Wn
!!!SMS-shelfmark: Mus.III.75.728 Cim.
!!!SMS-shelfwork: 001 W
!!!SMS-variant:
!!!SMS-altvar:
!!!NIFC-rismSourceID:
!!!NIFC-islandoraID:
!!!URL-pdf-islandora:
!!!URL-scan: https://polona.pl/item/album-lyrique-contenant-dix-romances-chansonnettes-et-mazureck-a-une-ou-plusieurs-voix,NzE0MjM5Nzc/9 @EN{Scan on Polona} @PL{Skany w portalu Polona}
!!!ONB-nifc: UWAGA: kolejne zwrotki wpisane w źródle tylko dla głosu wokalnego przetranskrybować wraz ze skopiowaną partią fortepianu (do ukrycia w humdrumie)
!!!OMD: Tempo di marcia.
!!!AIN: 1 piano 1 vox
!!!key: A
**kern	**kern	**dynam	**kern	**text	**text	**dynam
*part2	*part2	*part2	*part1	*part1	*part1	*part1
*staff3	*staff2	*	*staff1	*staff1	*staff1	*
*I"PIANO.	*I"PIANO.	*	*I"[Voice]	*	*	*
*Ipiano	*Ipiano	*	*Ivox	*	*	*
*ICklav	*ICklav	*	*ICvox	*	*	*
*IGacmp	*IGacmp	*	*IGsolo	*	*	*
*clefF4	*clefG2	*	*clefG2	*	*	*
*kcancel	*kcancel	*	*kcancel	*	*	*
*k[f#c#g#]	*k[f#c#g#]	*	*k[f#c#g#]	*	*	*
*A:	*A:	*	*A:	*	*	*
*M4/4	*M4/4	*	*M4/4	*	*	*
*met(c)	*met(c)	*	*met(c)	*	*	*
8a>\L	8eeL 8cc#/	.	4ryy	.	.	.
8a>\J	8eeJ 8cc#/	.	.	.	.	.
=1	=1	=1	=1	=1	=1	=1
4a>\	4ee 4cc#/	.	1ryy	.	.	.
8g#>\L	2ee 2dd 2b/	.	.	.	.	.
8f##X>\J	.	.	.	.	.	.
8g#>\L	.	.	.	.	.	.
8e>\	.	.	.	.	.	.
!LO:ACC:color=brown	!	!	!	!	!	!
!LO:N:acc=n#	!	!	!	!	!	!
8f#X>\	4ee 4dd 4b/	.	.	.	.	.
8g#>\J	.	.	.	.	.	.
=2	=2	=2	=2	=2	=2	=2
8a>\L	4ee 4cc#/	.	1ryy	.	.	.
8g#>\	.	.	.	.	.	.
8a>\	4ee 4cc#/	.	.	.	.	.
8e>\J	.	.	.	.	.	.
8c#>\L	4rgg	.	.	.	.	.
8e>\	.	.	.	.	.	.
8c#>\	8cc#L 8a/	.	.	.	.	.
8A>\J	8cc#J 8a/	.	.	.	.	.
=3	=3	=3	=3	=3	=3	=3
8d>\L	8bL 8a/	.	1ryy	.	.	.
8e>\J	8b 8a/	.	.	.	.	.
4fn>\	8b 8a/	sf	.	.	.	.
.	8bJ 8a/	.	.	.	.	.
(>8e>\L	8bL 8a/	.	.	.	.	.
8d#X>\J)	8b 8a/	.	.	.	.	.
4e>^\	8b 8g#/	.	.	.	.	.
.	8bJ 8g#/	.	.	.	.	.
!!LO:LB:g=original
=4	=4	=4	=4	=4	=4	=4
*	*^	*	*	*	*	*
4A 4AA\	4a 4e 4c#/	4ryy	.	2r	.	.	.
4A@ 4AA@\	4a 4e 4c#/	4c#\	.	.	.	.	.
2r	2r	2ryy	.	4r	.	.	.
.	.	.	.	8.g#/	W_głu-	Dans	.
.	.	.	.	16a/	-chej	le	.
*	*v	*v	*	*	*	*	*
=5	=5	=5	=5	=5	=5	=5
4A 4AA\	4a 4e 4c#/	sf	4a/	pusz-	bois	.
4r	4r	.	8.a#X/	-czy	près	.
.	.	.	16b/	przed	d’une	.
4C# 4CC#/	4b 4g# 4e/	.	4b\	chat-	hum-	.
4r	4r	.	8.b#X\	-ką	-ble	.
.	.	.	16cc#\	leś-	re-	.
=6	=6	=6	=6	=6	=6	=6
4AA 4AAA/	4cc# 4a 4e/	.	4cc#\	-ni-	-trai-	.
4AA 4AAA/	4cc# 4a 4e/	.	4cc#\	-ka	-te	.
2r	2r	.	4r	.	.	.
.	.	.	8f#/	ro-	lieu	.
.	.	.	8f#/	-ta	dé-	.
=7	=7	=7	=7	=7	=7	=7
*	*^	*	*	*	*	*
!LO:TX:a:t=ten&colon;	!	!	!	!	!	!	!
2BB 2BBB/	4dd/	8f#\	sf	4dd\	strzel-	-sert	.
.	.	4d\	.	.	.	.	.
.	8cc#/L	.	.	8cc#\	-ców	et	.
.	8b/J	8d\	.	8b\	sta-	d’om-	.
4E 4EE/	4cc#/	4a 4e\	.	4cc#\	-nę-	-bra-	.
4E 4EE/	8b/L	4g# 4d\	<	8b\	-ła	-ge	.
.	8cc#/J	.	[[	8cc#\	zie-	é-	.
*	*v	*v	*	*	*	*	*
=8	=8	=8	=8	=8	=8	=8
*	*	*	*^	*	*	*
!	!LO:S:s=1:note:problem=note-level slur	!	!	!	!	!	!
!LO:S:s=1:note:problem=note-level slur	!LO:S:s=2:note:problem=note-level slur	!	!	!	!	!	!
(<4E (4EE/	(<4b (<4g# (<4d/	sf	4b/	2a\	-lo-	-ter-	.
4A) 4AA\)	4a) 4e) 4c#/)	.	4a/	.	-na	-nel	.
!	!	!	!	!	!	!	!LO:DY:a
4r	4r	.	4r	2ryy	.	.	f
8.g#>L 8.e>\	8.b/L	.	8b\	.	a	de	.
.	.	.	8b\	.	u	chas-	.
16g#>Jk 16e>\	16b/Jk	.	.	.	.	.	.
*	*	*	*v	*v	*	*	*
!!LO:LB:g=original
=9	=9	=9	=9	=9	=9	=9
4g#> 4e>\	4b/	.	4b/	wrót	-seurs	.
8d#X>\L	4b 4a 4f#/	.	8a/	sto-	un	.
8c##X>\J	.	.	8g#/	-i	es-	.
8d#>\L	4b 4a 4f#/	.	4a/	straż	-ca-	.
8B>\	.	.	.	.	.	.
!LO:N:acc=n#	!	!	!	!	!	!
8c#X>\	4b 4a 4f#/	.	8a/	puł-	-dron	.
8d#>\J	.	.	8a/	-kow-	s’ar-	.
=10	=10	=10	=10	=10	=10	=10
8e>\L	4b 4g#/	.	4g#/	-ni-	-rê-	.
8d#X>\	.	.	.	.	.	.
8e>\	4b 4g#/	.	4g#/	-ka	-te	.
8B>\J	.	.	.	.	.	.
8G#'\L	4r	.	4r	.	.	.
8B'\	.	.	.	.	.	.
8G#'\	4e/	.	8e/	tam	c’est	.
8E'\J	.	.	8e/	w_iz-	.	.
=11	=11	=11	=11	=11	=11	=11
8A\L	8f#L 8e/	.	4cc#\	-deb-	là-	.
8B\J	8f# 8e/	.	.	.	.	.
4c#^\	8f# 8e/	.	8cc#\	-ce	-que-	.
.	8f#J 8e/	.	8cc#\	puł-	-meurt	.
8B\L	8f#L 8e/	.	4b\	-kow-	leur	.
8A#\J	8f# 8e/	.	.	.	.	.
!	!	!	!LO:SIC:v:s=8.d#/	!	!	!
4B^\	8f# 8d#X/	.	8.d/	-nik	co-	.
.	8f#J 8d#/	.	.	.	.	.
!	!	!	!LO:SIC:v:s=16d#/	!	!	!
.	.	.	16d/	ich	-lo-	.
=12	=12	=12	=12	=12	=12	=12
*	*	*	*^	*	*	*
!	!	!LO:HP:t=dim&colon;	!	!	!	!	!
8.G# 8.EL\	8.eL 8.B/	>	4e/	2e\	ko-	-nel	.
16G# 16EK\	16eK 16B/	.	.	.	.	.	.
8.G# 8.E\	8.e 8.B/	.	4e/	.	-na	.	.
16G# 16EJk\	16eJk 16B/	.	.	.	.	.	.
8G# 8EL\	4e 4B/	sf	2r	2ryy	.	.	.
8D#X\	.	.	.	.	.	.	.
8E\	4e 4G#/	.	.	.	.	.	.
8Dn\J	.	.	.	.	.	.	.
*	*	*	*v	*v	*	*	*
=13||	=13||	=13||	=13||	=13||	=13||	=13||
!!!key: C
*k[]	*k[]	*	*k[]	*	*	*
*	*	*	*^	*	*	*
4C 4CC\	4e 4c 4G</	.	4e/	4ryy	z_wio-	sur	.
8.CL 8.CC\	8.eL 8.c 8.G</	.	8.e/	4e\	-sek	leur	.
16CJk 16CC\	16eJk 16c 16G</	.	16e/	.	się	.	.
4C 4CC\	4e 4c 4G</	.	4e/	2ryy	zbieg-	pas	.
4C 4CC\	(8.dL 8.B/	.	8d/	.	-ły	le	.
.	.	.	8e/	.	.	peu-	.
.	16eJk 16c/)	.	.	.	.	.	.
*	*	*	*v	*v	*	*	*
=14	=14	=14	=14	=14	=14	=14
4BB\	4f 4d 4G</	.	4f/	tłu-	-ple	.
4GG\	8gL 8B< 8G</	.	8.g/	-my	du	.
.	8d/J	.	.	.	.	.
.	.	.	16d/	wieś-	vil-	.
4C\	4e 4c 4G</	.	4e/	-nia-	-la-	.
4E\	4g 4c 4G</	.	4g/	-cze	-ge	.
!!LO:LB:g=original
=15	=15	=15	=15	=15	=15	=15
*^	*	*	*	*	*	*
4F 4D\	2ryy	4g 4B</	.	4.g/	wodz	vient	.
8.BB\L	.	8.B<L 8.F</	.	.	.	.	.
.	.	.	.	8B/	to	trem-	.
16GG\Jk	.	16B<Jk 16F</	.	.	.	.	.
4AA\	4ryy	8.c<L 8.F#X</	.	4c/	był	-blant	.
.	.	16qqc</LL	.	.	.	.	.
.	.	16qqd</JJ	.	.	.	.	.
.	.	16c</K	.	.	.	.	.
!	!LO:TX:b:t=P:stem.color=brown:problem	!	!	!	!	!	!
4D@/	8.AA\L	8.B</	.	8B/	wiel-	s’in-	.
.	.	.	.	8c/	-kiej	-for-	.
.	16F#y\Jk	16c</Jk	.	.	.	.	.
*v	*v	*	*	*	*	*	*
=16	=16	=16	=16	=16	=16	=16
8.GG\L	4d 4B 4G</	.	4d/	mo-	-mer	.
16FF#X\Jk	.	.	.	.	.	.
8.GG\L	8.dL 8.B 8.G</	.	8.d/	-cy	de	.
16GG\Jk	16dJk 16B 16G</	.	16d/	i	son	.
4GG\	4d 4B 4G</	.	4dSSS</	sła-	sort	.
4BB 4BBB\	4d#X 4B 4A/	.	4d#X/	-wy	.	.
=17	=17	=17	=17	=17	=17	=17
!	!LO:TX:b:t=sotto voce.	!	!	!	!	!
4E 4EE\	4e 4B 4G/	.	4.e/	kię-	c’est	.
8.EL 8.EE\	8.eL 8.B 8.G/	.	.	.	.	.
.	.	.	8e/	-dy	un	.
16EJk 16EE\	16eJk 16B 16G/	.	.	.	.	.
4E 4EE\	4e 4B 4G/	.	4e/	po	chef	.
!LO:S:s=1:note:problem=note-level slur	!LO:ACC:n=1:color=brown	!	!	!	!	!
(<4BB (<4BBB\	4f#X 4d#X 4B 4A/	sf <	4f#X/	nim	fa-	.
=18	=18	=18	=18	=18	=18	=18
*	*	*	*^	*	*	*
8.EL 8.EE/))	4g 4e 4B/	[	8.g/	2ryy	lud	-meux	.
16AA#X/Jk	.	p	16e/	.	pros-	par	.
8.BB/L	8.eL 8.B 8.G/	.	8.e/	.	-ty	son	.
16GG/Jk	16eJk 16B 16G/	.	16e/	.	tak	cou-	.
4EE/	4e 4B 4G/	<	4e/	4ryy	pła-	-ra-	.
!	!LO:SIC:v:n=1:s=4f#	!	!	!	!	!	!
4BB 4BBB/	4f 4d#X 4B 4A/	[[	4f#X/	8.f#X\	-cze	-ge	.
.	.	.	.	16f#\	.	par	.
*	*	*	*v	*v	*	*	*
=19	=19	=19	=19	=19	=19	=19
8.EL 8.EE/	8.g 8.e 8.B/	.	(8.g/	i	tout	.
16DK 16DD/	16fnKL 16A/	<	16fn/)	o	.	.
8.E 8.EE/	8.e 8.G/	.	8.e/	zdro-	on	.
16FnJk 16FFn/	16dnJk 16A/	[	16d/	-wie	dé-	.
8.GL 8.GG/	8.gL 8.e 8.c/	>	8.g/	tak	-plo-	.
16GK 16GG/	16gK 16e 16c/	.	16g/	py-	.	.
8.G 8.GG/	8.g 8.d 8.B/	.	8.B/	-ta	-re	.
16GJk 16GG/	16gJk 16d 16B/	]	16B/	cie-	sa	.
!!LO:PB:g=original
=20	=20	=20	=20	=20	=20	=20
*	*	*	*^	*	*	*
4C 4CC/	8e 8c/	f	4c/	2c\	-ka-	mort	.
.	16eeLL 16e\	<	.	.	.	.	.
.	16eeJJ 16e\	.	.	.	.	.	.
4r	8eeL 8e\	.	4c/	.	-wy	.	.
.	8eeJ 8e\	.	.	.	.	.	.
*	*tremolo	*	*	*	*	*	*
2r	8eeL 8e\	.	2r	2ryy	.	.	.
.	8ee 8e\	.	.	.	.	.	.
.	8ee 8e\	.	.	.	.	.	.
!	!LO:TX:a:t=[segno]:problem=na kresce taktowej	!	!	!	!	!	!
.	8eeJ 8e\	[[	.	.	.	.	.
*	*Xtremolo	*	*	*	*	*	*
*	*	*	*v	*v	*	*	*
=21||	=21||	=21||	=21||	=21||	=21||	=21||
!!!key: A
*k[f#c#g#]	*k[f#c#g#]	*	*k[f#c#g#]	*	*	*
*	*^	*	*	*	*	*
!	!LO:TX:a:t=au 4.me Couplet passez au signe.	!	!	!	!	!	!
4B 4E\	4g# 4d/	2ryy	.	1r	.	.	.
4B 4E\	8.g#L 8.d/	.	.	.	.	.	.
.	16g#Jk 16d/	.	.	.	.	.	.
!	!LO:N:vis=8	!	!	!	!	!	!
4Fn\	8.a/L	4d#X\	.	.	.	.	.
.	16qqa/LL	.	fz	.	.	.	.
.	16qqb/JJ	.	.	.	.	.	.
.	16a/K	.	.	.	.	.	.
4F 4FFn/	8.g#/	4d# 4B\	.	.	.	.	.
.	16a/Jk	.	.	.	.	.	.
*	*v	*v	*	*	*	*	*
=22	=22	=22	=22	=22	=22	=22
2.E 2.EE/	2.b 2.g# 2.e 2.B/	rfz	2r	.	.	.
.	.	.	4r	.	.	.
4r	4r	.	8.g#/	Kie-	C’est	.
.	.	.	16a/	-dy	un	.
=23	=23	=23	=23	=23	=23	=23
4A 4AA\	4a 4e 4c#/	mf	4a/	po	chef	.
4r	4r	.	8.a#X/	nim	fa-	.
.	.	.	16b/	lud	.	.
!	!	!LO:DY:rj	!	!	!	!
4E 4EE/	4b 4g# 4e/	sf	8.b/	.	-meux	.
.	.	.	16b\	pros-	par	.
4r	4r	.	8.b#X\	-ty	son	.
.	.	.	16cc#X\	tak	cou-	.
=24	=24	=24	=24	=24	=24	=24
4AA 4AAA/	4cc# 4a 4e 4c#/	f	4cc#\	pła-	-ra-	.
4AA 4AAA/	4cc# 4a 4e 4c#/	.	4cc#\	-cze	-ge	.
4r	4r	p	4r	.	.	.
(8e\L	8ee\L	.	8ee\	i	par	.
8c#\J)	8cc#\J	.	8cc#\	o	.	.
=25	=25	=25	=25	=25	=25	=25
*	*^	*	*	*	*	*
2F#\	4a 4f#/	2c#\	.	4a\	zdro-	tout	.
.	(<8b/L	.	.	8b\	-wie	on	.
.	8cc#/J)	.	.	8cc#\	py-	dé-	.
!	!LO:TX:b:t=ten	!	!	!	!	!	!
(4B 4BB\	4dd 4b 4f# 4d/	2ryy	sf	4dd\	-ta	-plo-	.
4E\)	8cc#L 8g# 8e 8d/	.	>	8cc#\	tak	-re	.
.	8b/J	.	]]	8b\	cie-	sa	.
*	*v	*v	*	*	*	*	*
=26	=26	=26	=26	=26	=26	=26
*	*	*	*^	*	*	*
(4E 4EE/	(4b 4g# 4e 4d/	.	4b/	2a\	-ka-	mort	.
4A 4AA\)	4a 4e 4c#/)	.	4a/	.	-wy	.	.
4r	4rg	.	2r	2ryy	.	.	.
8a>\Lyy	8eeLyy 8cc#yy/	.	.	.	.	.	.
8a>\Jyy	8eeJyy 8cc#yy/	.	.	.	.	.	.
*	*	*	*v	*v	*	*	*
!!LO:PB:g=original
=27|!	=27|!	=27|!	=27|!	=27|!	=27|!	=27|!
4a>\yy	4eeyy 4cc#/yy	.	1ryyyy	.	.	.
8g#>\Lyy	2eeyy 2ddyy 2b/yy	.	.	.	.	.
8f##X>\Jyy	.	.	.	.	.	.
8g#>\Lyy	.	.	.	.	.	.
8e>\yy	.	.	.	.	.	.
!LO:ACC:color=brown	!	!	!	!	!	!
!LO:N:acc=n#	!	!	!	!	!	!
8f#X>\yy	4eeyy 4ddyy 4b/yy	.	.	.	.	.
8g#>\Jyy	.	.	.	.	.	.
=28	=28	=28	=28	=28	=28	=28
8a>\Lyy	4eeyy 4cc#/yy	.	1ryyyy	.	.	.
8g#>\yy	.	.	.	.	.	.
8a>\yy	4eeyy 4cc#/yy	.	.	.	.	.
8e>\Jyy	.	.	.	.	.	.
8c#>\Lyy	4rggyy	.	.	.	.	.
8e>\yy	.	.	.	.	.	.
8c#>\yy	8cc#L 8a/yy	.	.	.	.	.
8A>\Jyy	8cc#J 8a/yy	.	.	.	.	.
=29	=29	=29	=29	=29	=29	=29
8d>\Lyy	8bL 8a/yy	.	1ryyyy	.	.	.
8e>\Jyy	8b 8a/yy	.	.	.	.	.
4fn>\yy	8b 8a/yy	sfy	.	.	.	.
.	8bJ 8a/yy	.	.	.	.	.
(y>8e>\Lyy	8bL 8a/yy	.	.	.	.	.
8d#X>\J)yy	8b 8a/yy	.	.	.	.	.
4e>^\yy	8b 8g#/yy	.	.	.	.	.
.	8bJ 8g#/yy	.	.	.	.	.
!!LO:LB:g=original
=30	=30	=30	=30	=30	=30	=30
*	*^	*	*	*	*	*
4Ayy 4AA\yy	4ayy 4eyy 4c#/yy	4ryyyy	.	2ryy	.	.	.
4A@yy 4AA@\yy	4ayy 4eyy 4c#/yy	4c#\yy	.	.	.	.	.
2ryy	2ryy	2ryyyy	.	4ryy	.	.	.
*	*	*	*	*	*v:2	*v:2	*
.	.	.	.	8.g#/yy	Ka-	Tous	.
.	.	.	.	16a/yy	-zał	ces	.
*	*v	*v	*	*	*	*	*
=31	=31	=31	=31	=31	=31	=31
4Ayy 4AA\yy	4ayy 4eyy 4c#/yy	sfy	4a/yy	ko-	fiers	.
4ryy	4ryy	.	8.a#X/yy	-nia	vé-	.
.	.	.	16b/yy	puł-	-té-	.
4C#yy 4CC#/yy	4byy 4g#yy 4e/yy	.	4b\yy	-ko-	-rans	.
4ryy	4ryy	.	8.b#X\yy	-wnik	de	.
.	.	.	16cc#\yy	kul-	nos	.
=32	=32	=32	=32	=32	=32	=32
4AAyy 4AAA/yy	4cc#yy 4ayy 4e/yy	.	4cc#\yy	-ba-	guer-	.
4AAyy 4AAA/yy	4cc#yy 4ayy 4e/yy	.	4cc#\yy	-czyć	-res	.
2ryy	2ryy	.	4ryy	.	.	.
.	.	.	8f#/yy	Ko-	Qui	.
.	.	.	8f#/yy	-nia	ja-	.
=33	=33	=33	=33	=33	=33	=33
*	*^	*	*	*	*	*
!LO:TX:a:t=ten&colon;	!	!	!	!	!	!	!
2BByy 2BBB/yy	4dd/yy	8f#\yy	sfy	4dd\yy	w_ka-	-ma-	.
.	.	4d\yy	.	.	.	.	.
.	8cc#/Lyy	.	.	8cc#\yy	-żdéj	-is	.
.	8b/Jyy	8d\yy	.	8b\yy	sła-	dans	.
4Eyy 4EE/yy	4cc#/yy	4ayy 4e\yy	.	4cc#\yy	-wne-	leurs	.
4Eyy 4EE/yy	8b/Lyy	4g#yy 4d\yy	<	8b\yy	-go	san-	.
.	8cc#/Jyy	.	[[	8cc#\yy	po-	-glans	.
*	*v	*v	*	*	*	*	*
=34	=34	=34	=34	=34	=34	=34
*	*	*	*^	*	*	*
!	!LO:S:s=1:note:problem=note-level slur	!	!	!	!	!	!
!LO:S:s=1:note:problem=note-level slur	!LO:S:s=2:note:problem=note-level slur	!	!	!	!	!	!
(y<4Eyy (y4EE/yy	(y<4byy (y<4g#yy (y<4d/yy	sfy	4b/yy	2a\yy	-trze-	explo-	.
4A)yy 4AA\)yy	4a)yy 4e)yy 4c#/)yy	.	4a/yy	.	-bie	-its	.
!	!	!	!	!	!	!	!LO:DY:a
4ryy	4ryy	.	4ryy	2ryyyy	.	.	fy
8.g#>Lyy 8.e>\yy	8.b/Lyy	.	8b\yy	.	Chce	N'ont	.
.	.	.	8b\yy	.	go	moui-	.
16g#>Jkyy 16e>\yy	16b/Jkyy	.	.	.	.	.	.
*	*	*	*v	*v	*	*	*
!!LO:LB:g=original
=35	=35	=35	=35	=35	=35	=35
4g#>yy 4e>\yy	4b/yy	.	4b/yy	jesz-	-llé	.
8d#X>\Lyy	4byy 4ayy 4f#/yy	.	8a/yy	-cze	leurs	.
8c##X>\Jyy	.	.	8g#/yy	przed	fa-	.
8d#>\Lyy	4byy 4ayy 4f#/yy	.	4a/yy	smier-	-rou-	.
8B>\yy	.	.	.	.	.	.
!LO:N:acc=n#	!	!	!	!	!	!
8c#X>\yy	4byy 4ayy 4f#/yy	.	8a/yy	cią	-ches	.
8d#>\Jyy	.	.	8a/yy	o-	pau-	.
=36	=36	=36	=36	=36	=36	=36
8e>\Lyy	4byy 4g#/yy	.	4g#/yy	-ba-	-pié-	.
8d#X>\yy	.	.	.	.	.	.
8e>\yy	4byy 4g#/yy	.	4g#/yy	-czyć	-res	.
8B>\Jyy	.	.	.	.	.	.
8G#'\Lyy	4ryy	.	4ryy	.	.	.
8B'\yy	.	.	.	.	.	.
8G#'\yy	4e/yy	.	8e/yy	Ka-	Pleu-	.
8E'\Jyy	.	.	8e/yy	-zał	-rent	.
=37	=37	=37	=37	=37	=37	=37
8A\Lyy	8f#L 8e/yy	.	4cc#\yy	przy-	pour	.
8B\Jyy	8f# 8e/yy	.	.	.	.	.
4c#^\yy	8f# 8e/yy	.	8cc#\yy	-wieść	la	.
.	8f#J 8e/yy	.	8cc#\yy	do	pre-	.
8B\Lyy	8f#L 8e/yy	.	4b\yy	i-	-miè-	.
8A#\Jyy	8f# 8e/yy	.	.	.	.	.
!	!	!	!LO:SIC:v:s=8.d#/	!	!	!
4B^\yy	8f# 8d#X/yy	.	8.d/yy	-żby	-re	.
.	8f#J 8d#/yy	.	.	.	.	.
!	!	!	!LO:SIC:v:s=16d#/	!	!	!
.	.	.	16d/yy	do	.	.
=38	=38	=38	=38	=38	=38	=38
*	*	*	*^	*	*	*
!	!	!LO:HP:t=dim&colon;	!	!	!	!	!
8.G# 8.EL\yy	8.eL 8.B/yy	>	4e/yy	2e\yy	sie-	fo-	.
16G# 16EK\yy	16eK 16B/yy	.	.	.	.	.	.
8.G# 8.E\yy	8.e 8.B/yy	.	4e/yy	.	-bie	-is	.
16G# 16EJk\yy	16eJk 16B/yy	.	.	.	.	.	.
8G# 8EL\yy	4eyy 4B/yy	sfy	2ryy	2ryyyy	.	.	.
8D#X\yy	.	.	.	.	.	.	.
8E\yy	4eyy 4G#/yy	.	.	.	.	.	.
8Dn\Jyy	.	.	.	.	.	.	.
*	*	*	*v	*v	*	*	*
=39	=39	=39	=39	=39	=39	=39
!!!key: C
*k[]	*k[]	*	*k[]	*	*	*
*	*	*	*^	*	*	*
4Cyy 4CC\yy	4eyy 4cyy 4G</yy	.	4e/yy	4ryyyy	Ka-	Le	.
8.CLy 8.CC\yy	8.eLyy 8.cyy 8.G</yy	.	8.e/yy	4e\yy	-zał	chef	.
16CJkyyy 16CC\yy	16eJkyy 16cyy 16G</yy	.	16e/yy	.	przy-	.	.
4Cyy 4CC\yy	4eyy 4cyy 4G</yy	.	4e/yy	2ryyyy	nieść	seul	.
4Cyy 4CC\yy	(y8.dLyy 8.B/yy	.	8d/yy	.	swój	ne	.
.	.	.	8e/yy	.	.	ré-	.
.	16eJkyy 16c/)yy	.	.	.	.	.	.
*	*	*	*v	*v	*	*	*
=40	=40	=40	=40	=40	=40	=40
4BB\yy	4fyy 4dyy 4G</yy	.	4f/yy	mun-	-pand	.
4GG\yy	8gLyy 8B<yy 8G</yy	.	8.g/yy	-dur	point	.
.	8d/Jyy	.	.	.	.	.
.	.	.	16d/yy	strze-	de	.
4C\yy	4eyy 4cyy 4G</yy	.	4e/yy	-le-	lar-	.
4E\yy	4gyy 4cyy 4G</yy	.	4g/yy	-cki	-mes	.
!!LO:LB:g=original
=41	=41	=41	=41	=41	=41	=41
*^	*	*	*	*	*	*
4Fyy 4D\yy	2ryyyy	4gyy 4B</yy	.	4.g/yy	Swoj	Mais	.
8.BB\Lyy	.	8.B<Lyy 8.F</yy	.	.	.	.	.
.	.	.	.	8B/yy	kor-	il	.
16GG\Jkyy	.	16B<Jkyy 16F</yy	.	.	.	.	.
4AA\yy	4ryyyy	8.c<Lyy 8.F#X</yy	.	4c/yy	-de-	veut	.
.	.	16qqc</LLyy	.	.	.	.	.
.	.	16qqd</JJyy	.	.	.	.	.
.	.	16c</Kyy	.	.	.	.	.
!	!LO:TX:b:t=P:stem.color=brown:problem	!	!	!	!	!	!
4D@/yy	8.AA\Lyy	8.B</yy	.	8B/yy	-las	à	.
.	.	.	.	8c/yy	i	son	.
.	16F#y\Jkyy	16c</Jkyy	.	.	.	.	.
*v	*v	*	*	*	*	*	*
=42	=42	=42	=42	=42	=42	=42
8.GG\Lyy	4dyy 4Byy 4G</yy	.	4d/yy	pas	der-	.
16FF#X\Jkyy	.	.	.	.	.	.
8.GG\Lyy	8.dLyy 8.Byy 8.G</yy	.	8.d/yy	i	-nier	.
16GG\Jkyy	16dJkyy 16Byy 16G</yy	.	16d/yy	ła-	.	.
4GG\yy	4dyy 4Byy 4G</yy	.	4dSSS</yy	-dun-	sou-	.
4BByy 4BBB\yy	4d#Xyy 4Byy 4A/yy	.	4d#X/yy	-ki	pir	.
=43	=43	=43	=43	=43	=43	=43
!	!LO:TX:b:t=sotto voce.	!	!	!	!	!
4Eyy 4EE\yy	4eyy 4Byy 4G/yy	.	4.e/yy	Sta-	Em-	.
8.ELyy 8.EE\yy	8.eLyy 8.Byy 8.G/yy	.	.	.	.	.
.	.	.	8e/yy	-ry	-bras-	.
16EJkyyy 16EE\yy	16eJky 16Byy 16G/yy	.	.	.	.	.
4Eyy 4EE\yy	4eyy 4Byy 4G/yy	.	4e/yy	żoł-	-ser	.
!LO:S:s=1:note:problem=note-level slur	!LO:ACC:n=1:color=brown	!	!	!	!	!
(y<4BByy (y<4BBB\yy	4f#Xyy 4d#Xyy 4Byy 4A/yy	sfy <	4f#X/yy	-nierz	son	.
=44	=44	=44	=44	=44	=44	=44
*	*	*	*^	*	*	*
8.ELyy 8.EE/))yy	4gyy 4eyy 4B/yy	[	8.g/yy	2ryyyy	on	che-	.
16AA#X/Jkyy	.	py	16e/yy	.	chce	-val	.
8.BB/Lyy	8.eLyy 8.Byy 8.G/yy	.	8.e/yy	.	jak	et	.
16GG/Jkyy	16eJkyy 16Byy 16G/yy	.	16e/yy	.	Czar-	ses	.
4EE/yy	4eyy 4Byy 4G/yy	<	4e/yy	4ryyyy	-nie-	ar-	.
!	!LO:SIC:v:n=1:s=4f#	!	!	!	!	!	!
4BByy 4BBB/yy	4fyy 4d#Xyy 4Byy 4A/yy	[[	4f#X/yy	8.f#X\yy	-cki	-mes	.
.	.	.	.	16f#\yy	.	.	.
*	*	*	*v	*v	*	*	*
=45	=45	=45	=45	=45	=45	=45
8.ELyy 8.EE/yy	8.gyy 8.eyy 8.B/yy	.	(y8.g/yy	U-	C'est	.
16DKyy 16DD/yy	16fnKLyy 16A/yy	<	16fn/)yy	-mie-	en	.
8.Eyy 8.EE/yy	8.eyy 8.G/yy	.	8.e/yy	-ra-	sol-	.
16FnJkyy 16FFn/yy	16dnJkyy 16A/yy	[	16d/yy	-jąc	dat	.
8.GLyy 8.GG/yy	8.gLyy 8.eyy 8.c/yy	>	8.g/yy	swe	qu'il	.
16GKyy 16GG/yy	16gKyy 16eyy 16c/yy	.	16g/yy	że-	do-	.
8.Gyy 8.GG/yy	8.gyy 8.dyy 8.B/yy	.	8.B/yy	-gnać	-it	.
16GJkyy 16GG/yy	16gJkyy 16dyy 16B/yy	]	16B/yy	ry-	mou-	.
!!LO:PB:g=original
=46	=46	=46	=46	=46	=46	=46
*	*	*	*^	*	*	*
4Cyy 4CC/yy	8eyy 8c/yy	fy	4c/yy	2c\yy	-sztun-	-rir	.
.	16eeLLyy 16e\yy	<	.	.	.	.	.
.	16eeJJyy 16e\yy	.	.	.	.	.	.
4ryy	8eeLyy 8e\yy	.	4c/yy	.	-ki	.	.
.	8eeJyy 8e\yy	.	.	.	.	.	.
*	*tremolo	*	*	*	*	*	*
2ryy	8eeLyy 8e\yy	.	2ryy	2ryyyy	.	.	.
.	8eeyy 8e\yy	.	.	.	.	.	.
.	8eeyy 8e\yy	.	.	.	.	.	.
!	!LO:TX:a:t=[segno]:problem=na kresce taktowej	!	!	!	!	!	!
.	8eeJyy 8e\yy	[[	.	.	.	.	.
*	*Xtremolo	*	*	*	*	*	*
*	*	*	*v	*v	*	*	*
=47	=47	=47	=47	=47	=47	=47
!!!key: A
*k[f#c#g#]	*k[f#c#g#]	*	*k[f#c#g#]	*	*	*
*	*^	*	*	*	*	*
!	!LO:TX:a:t=au 4.me Couplet passez au signe.	!	!	!	!	!	!
4Byy 4E\yy	4g#yy 4d/yy	2ryyyy	.	1ryy	.	.	.
4Byyy 4E\yy	8.g#Lyy 8.d/yy	.	.	.	.	.	.
.	16g#Jkyy 16d/yy	.	.	.	.	.	.
!	!LO:N:vis=8	!	!	!	!	!	!
4Fn\yy	8.a/Lyy	4d#X\yy	.	.	.	.	.
.	16qqa/LLyy	.	fzy	.	.	.	.
.	16qqb/JJyy	.	.	.	.	.	.
.	16a/Kyy	.	.	.	.	.	.
4Fyy 4FFn/yy	8.g#/yy	4d#yy 4B\yy	.	.	.	.	.
.	16a/Jkyy	.	.	.	.	.	.
*	*v	*v	*	*	*	*	*
=48	=48	=48	=48	=48	=48	=48
2.Eyy 2.EE/yy	2.byy 2.g#yy 2.eyy 2.B/yy	rfzy	2ryy	.	.	.
.	.	.	4ryy	.	.	.
4ryy	4ryy	.	8.g#/yy	Sta-	Em-	.
.	.	.	16a/yy	-ry	-bras-	.
=49	=49	=49	=49	=49	=49	=49
4Ayy 4AA\yy	4ayy 4eyy 4c#/yy	mfy	4a/yy	żoł-	-ser	.
4ryy	4ryy	.	8.a#X/yy	-nierz	son	.
.	.	.	16b/yy	on	che-	.
!	!	!LO:DY:rj	!	!	!	!
4Eyy 4EE/yy	4byy 4g#yy 4e/yy	sfy	8.b/yy	chce	.	.
.	.	.	16b\yy	.	-val	.
4ryy	4ryy	.	8.b#X\yy	jak	et	.
.	.	.	16cc#X\yy	Czar-	ses	.
=50	=50	=50	=50	=50	=50	=50
4AAyy 4AAA/yy	4cc#yy 4ayy 4eyy 4c#/yy	fy	4cc#\yy	-nie-	ar-	.
4AAyy 4AAA/yy	4cc#yy 4ayy 4eyy 4c#/yy	.	4cc#\yy	-cki	-mes	.
4ryy	4ryy	py	4ryy	.	.	.
(y8e\Lyy	8ee\Lyy	.	8ee\yy	U-	C'est	.
8c#\J)yy	8cc#\Jyy	.	8cc#\yy	-mie-	en	.
=51	=51	=51	=51	=51	=51	=51
*	*^	*	*	*	*	*
2F#\yy	4ayy 4f#/yy	2c#\yy	.	4a\yy	-ra-	sol-	.
.	(y<8b/Lyy	.	.	8b\yy	-jąc	-dat	.
.	8cc#/J)yy	.	.	8cc#\yy	swe	qu'il	.
!	!LO:TX:b:t=ten	!	!	!	!	!	!
(y4Byy 4BB\yy	4ddyy 4byy 4f#yy 4d/yy	2ryyyy	sfy	4dd\yy	że-	do-	.
4E\)yy	8cc#Lyy 8g#yy 8eyy 8d/yy	.	>	8cc#\yy	-gnać	-it	.
.	8b/Jyy	.	]]	8b\yy	ry-	mou-	.
*	*v	*v	*	*	*	*	*
=52	=52	=52	=52	=52	=52	=52
*	*	*	*^	*	*	*
(y4Eyy 4EE/yy	(y4byy 4g#yy 4eyy 4d/yy	.	4b/yy	2a\yy	-sztun-	-rir	.
4Ayy 4AA\)yy	4ayy 4eyy 4c#/)yy	.	4a/yy	.	-ki	.	.
4ryy	4rgyy	.	2ryy	2ryyyy	.	.	.
8a>\Lyy	8eeLyy 8cc#/yy	.	.	.	.	.	.
8a>\Jyy	8eeJyy 8cc#/yy	.	.	.	.	.	.
*	*	*	*v	*v	*	*	*
!!LO:PB:g=original
=53	=53	=53	=53	=53	=53	=53
4a>\yy	4eeyy 4cc#/yy	.	1ryyyy	.	.	.
8g#>\Lyy	2eeyy 2ddyy 2b/yy	.	.	.	.	.
8f##X>\Jyy	.	.	.	.	.	.
8g#>\Lyy	.	.	.	.	.	.
8e>\yy	.	.	.	.	.	.
!LO:ACC:color=brown	!	!	!	!	!	!
!LO:N:acc=n#	!	!	!	!	!	!
8f#X>\yy	4eeyy 4ddyy 4b/yy	.	.	.	.	.
8g#>\Jyy	.	.	.	.	.	.
=54	=54	=54	=54	=54	=54	=54
8a>\Lyy	4eeyy 4cc#/yy	.	1ryyyy	.	.	.
8g#>\yy	.	.	.	.	.	.
8a>\yy	4eeyy 4cc#/yy	.	.	.	.	.
8e>\Jyy	.	.	.	.	.	.
8c#>\Lyy	4rggyy	.	.	.	.	.
8e>\yy	.	.	.	.	.	.
8c#>\yy	8cc#Lyy 8a/yy	.	.	.	.	.
8A>\Jyy	8cc#Jyy 8a/yy	.	.	.	.	.
=55	=55	=55	=55	=55	=55	=55
8d>\Lyy	8bL 8a/yy	.	1ryyyy	.	.	.
8e>\Jyy	8b 8a/yy	.	.	.	.	.
4fn>\yy	8b 8a/yy	sfy	.	.	.	.
.	8bJ 8a/yy	.	.	.	.	.
(y>8e>\Lyy	8bL 8a/yy	.	.	.	.	.
8d#X>\J)yy	8b 8a/yy	.	.	.	.	.
4e>^\yy	8b 8g#/yy	.	.	.	.	.
.	8bJ 8g#/yy	.	.	.	.	.
!!LO:LB:g=original
=56	=56	=56	=56	=56	=56	=56
*	*^	*	*	*	*	*
4Ayy 4AA\yy	4ayy 4eyy 4c#/yy	4ryyyy	.	2ryy	.	.	.
4A@yy 4AA@\yy	4ayy 4eyy 4c#/yy	4c#\yy	.	.	.	.	.
2ryy	2ryy	2ryyyy	.	4ryy	.	.	.
*	*	*	*	*	*v:3	*v:3	*
.	.	.	.	8.g#/yy	A	Il	.
.	.	.	.	16a/yy	gdy	n'est	.
*	*v	*v	*	*	*	*	*
=57	=57	=57	=57	=57	=57	=57
4Ayy 4AA\yy	4ayy 4eyy 4c#/yy	sfy	4a/yy	ko-	plus!	.
4ryy	4ryy	.	8.a#X/yy	-nia	é-	.
.	.	.	16b/yy	już	-le-	.
4C#yy 4CC#/yy	4byy 4g#yy 4e/yy	.	4b\yy	z_i-	-vant	.
4ryy	4ryy	.	8.b#X\yy	-zby	la	.
.	.	.	16cc#\yy	wy-	croix	.
=58	=58	=58	=58	=58	=58	=58
4AAyy 4AAA/yy	4cc#yy 4ayy 4e/yy	.	4cc#\yy	-wie-	sain-	.
4AAyy 4AAA/yy	4cc#yy 4ayy 4e/yy	.	4cc#\yy	-dli	-te	.
2ryy	2ryy	.	4ryy	.	.	.
.	.	.	8f#/yy	Po-	Le	.
.	.	.	8f#/yy	-tem	vieux	.
=59	=59	=59	=59	=59	=59	=59
*	*^	*	*	*	*	*
!LO:TX:a:t=ten&colon;	!	!	!	!	!	!	!
2BByy 2BBB/yy	4dd/yy	8f#\yy	sfy	4dd\yy	do	prê-	.
.	.	4d\yy	.	.	.	.	.
.	8cc#/Lyy	.	.	8cc#\yy	niej	-tre	.
.	8b/Jyy	8d\yy	.	8b\yy	wszedł	é-	.
4Eyy 4EE/yy	4cc#/yy	4ayy 4e\yy	.	4cc#\yy	ksiądz	-touf-	.
4Eyy 4EE/yy	8b/Lyy	4g#yy 4d\yy	<	8b\yy	z_pa-	-fe	.
.	8cc#/Jyy	.	[[	8cc#\yy	-nem	ses	.
*	*v	*v	*	*	*	*	*
=60	=60	=60	=60	=60	=60	=60
*	*	*	*^	*	*	*
!	!LO:S:s=1:note:problem=note-level slur	!	!	!	!	!	!
!LO:S:s=1:note:problem=note-level slur	!LO:S:s=2:note:problem=note-level slur	!	!	!	!	!	!
(y<4Eyy (y4EE/yy	(y<4byy (y<4g#yy (y<4d/yy	sfy	4b/yy	2a\yy	bo-	san-	.
4A)yy 4AA\)yy	4a)yy 4e)yy 4c#/)yy	.	4a/yy	.	-giem	-glots	.
!	!	!	!	!	!	!	!LO:DY:a
4ryy	4ryy	.	4ryy	2ryyyy	.	.	fy
8.g#>Lyy 8.e>\yy	8.b/Lyy	.	8b\yy	.	I	Et	.
.	.	.	8b\yy	.	zoł-	la	.
16g#>Jkyy 16e>\yy	16b/Jkyy	.	.	.	.	.	.
*	*	*	*v	*v	*	*	*
!!LO:LB:g=original
=61	=61	=61	=61	=61	=61	=61
4g#>yy 4e>\yy	4b/yy	.	4b/yy	-nie-	fou-	.
8d#X>\Lyy	4byy 4ayy 4f#/yy	.	8a/yy	-rze	-le	.
8c##X>\Jyy	.	.	8g#/yy	od	ap-	.
8d#>\Lyy	4byy 4ayy 4f#/yy	.	4a/yy	ża-	-pro-	.
8B>\yy	.	.	.	.	.	.
!LO:N:acc=n#	!	!	!	!	!	!
8c#X>\yy	4byy 4ayy 4f#/yy	.	8a/yy	-lu	-chant	.
8d#>\Jyy	.	.	8a/yy	po-	avec	.
=62	=62	=62	=62	=62	=62	=62
8e>\Lyy	4byy 4g#/yy	.	4g#/yy	-ble-	crain-	.
8d#X>\yy	.	.	.	.	.	.
8e>\yy	4byy 4g#/yy	.	4g#/yy	-dli	-te	.
8B>\Jyy	.	.	.	.	.	.
8G#'\Lyy	4ryy	.	4ryy	.	.	.
8B'\yy	.	.	.	.	.	.
8G#'\yy	4e/yy	.	8e/yy	A	Con-	.
8E'\Jyy	.	.	8e/yy	lud	-tem-	.
=63	=63	=63	=63	=63	=63	=63
8A\Lyy	8f#Lyy 8e/yy	.	4cc#\yy	mo-	-ple	.
8B\Jyy	8f#yy 8e/yy	.	.	.	.	.
4c#^\yy	8f#yy 8e/yy	.	8cc#\yy	-dlił	les	.
.	8f#Jyy 8e/yy	.	8cc#\yy	się	tra-	.
8B\Lyy	8f#Lyy 8e/yy	.	4b\yy	klę-	-its	.
8A#\Jyy	8f#yy 8e/yy	.	.	.	.	.
!	!	!	!LO:SIC:v:s=8.d#/	!	!	!
4B^\yy	8f#yy 8d#X/yy	.	8.d/yy	-cząc	du	.
.	8f#Jyy 8d#/yy	.	.	.	.	.
!	!	!	!LO:SIC:v:s=16d#/	!	!	!
.	.	.	16d/yy	przed	hé-	.
=64	=64	=64	=64	=64	=64	=64
*	*	*	*^	*	*	*
!	!	!LO:HP:t=dim&colon;	!	!	!	!	!
8.G#yy 8.EL\yy	8.eLyy 8.B/yy	>	4e/yy	2e\yy	pro-	-ros	.
16G#yy 16EK\yy	16eKyy 16B/yy	.	.	.	.	.	.
8.G#yy 8.E\yy	8.eyy 8.B/yy	.	4e/yy	.	-giem	.	.
16G#yy 16EJk\yy	16eJkyy 16B/yy	.	.	.	.	.	.
8G#yy 8EL\yy	4eyy 4B/yy	sfy	2ryy	2ryyyy	.	.	.
8D#X\yy	.	.	.	.	.	.	.
8E\yy	4eyy 4G#/yy	.	.	.	.	.	.
8Dn\Jyy	.	.	.	.	.	.	.
*	*	*	*v	*v	*	*	*
=65	=65	=65	=65	=65	=65	=65
!!!key: C
*k[]	*k[]	*	*k[]	*	*	*
*	*	*	*^	*	*	*
4Cyy 4CC\yy	4eyy 4cyy 4G</yy	.	4e/yy	4ryyyy	Na-	Qu'ils	.
8.CLyy 8.CC\yy	8.eLyy 8.cyy 8.G</yy	.	8.e/yy	4e\yy	-wet	sont	.
16CJkyy 16CC\yy	16eJkyy 16cyy 16G</yy	.	16e/yy	.	.	.	.
4Cyy 4CC\yy	4eyy 4cyy 4G</yy	.	4e/yy	2ryyyy	sta-	purs	.
4Cyy 4CC\yy	(y8.dLyy 8.B/yy	.	8d/yy	.	-rzy	quel-	.
.	.	.	8e/yy	.	ko-	-le	.
.	16eJkyy 16c/)yy	.	.	.	.	.	.
*	*	*	*v	*v	*	*	*
=66	=66	=66	=66	=66	=66	=66
4BB\yy	4fyy 4dyy 4G</yy	.	4f/yy	-sciu-	dou-	.
4GG\yy	8gLyy 8B<yy 8G</yy	.	8.g/yy	-szki	-ceur	.
.	8d/Jyy	.	.	.	.	.
.	.	.	16d/yy	żoł-	é-	.
4C\yy	4eyy 4cyy 4G</yy	.	4e/yy	-nie-	-tran-	.
4E\yy	4gyy 4cyy 4G</yy	.	4g/yy	-rze	-ge	.
!!LO:LB:g=original
=67	=67	=67	=67	=67	=67	=67
*^	*	*	*	*	*	*
4Fyy 4D\yy	2ryyyy	4gyy 4B</yy	.	4.g/yy	Ty-	Di-	.
8.BB\Lyy	.	8.B<Lyy 8.F</yy	.	.	.	.	.
.	.	.	.	8B/yy	-le	-eu	.
16GG\Jkyy	.	16B<Jkyy 16F</yy	.	.	.	.	.
4AA\yy	4ryyyy	8.c<Lyy 8.F#X</yy	.	4c/yy	krwi	ce	.
.	.	16qqc</LLyy	.	.	.	.	.
.	.	16qqd</JJyy	.	.	.	.	.
.	.	16c</Kyy	.	.	.	.	.
!	!LO:TX:b:t=P:stem.color=brown:problem	!	!	!	!	!	!
4D@/yy	8.AA\Lyy	8.B</yy	.	8B/yy	swej	sein	.
.	.	.	.	8c/yy	i	dé-	.
.	16F#y\Jkyy	16c</Jkyy	.	.	.	.	.
*v	*v	*	*	*	*	*	*
=68	=68	=68	=68	=68	=68	=68
8.GG\Lyy	4dyy 4Byy 4G</yy	.	4d/yy	cu-	-chi-	.
16FF#X\Jkyy	.	.	.	.	.	.
8.GG\Lyy	8.dLyy 8.Byy 8.G</yy	.	8.d/yy	-dzej	-ré	.
16GG\Jkyy	16dJkyy 16Byy 16G</yy	.	16d/yy	wy-	par	.
4GG\yy	4dyy 4Byy 4G</yy	.	4dSSS</yy	-la-	le	.
4BByy 4BBB\yy	4d#Xyy 4Byy 4A/yy	.	4d#X/yy	-li	fer	.
=69	=69	=69	=69	=69	=69	=69
!	!LO:TX:b:t=sotto voce.	!	!	!	!	!
4Eyy 4EE\yy	4eyy 4Byy 4G/yy	.	4.e/yy	Łzy	Le	.
8.ELyy 8.EE\yy	8.eLyy 8.Byy 8.G/yy	.	.	.	.	.
.	.	.	8e/yy	ni	hé-	.
16EJkyy 16EE\yy	16eJkyy 16Byy 16G/yy	.	.	.	.	.
4Eyy 4EE\yy	4eyy 4Byy 4G/yy	.	4e/yy	je-	-ros	.
!LO:S:s=1:note:problem=note-level slur	!LO:ACC:n=1:color=brown	!	!	!	!	!
(y<4BByy (y<4BBB\yy	4f#Xyy 4d#Xyy 4Byy 4A/yy	sfy <	4f#X/yy	-dnej	c'est	.
=70	=70	=70	=70	=70	=70	=70
*	*	*	*^	*	*	*
8.ELyy 8.EE/))yy	4gyy 4eyy 4B/yy	[	8.g/yy	2ryyyy	a	u-	.
16AA#X/Jkyy	.	py	16e/yy	.	te-	-ne	.
8.BB/Lyy	8.eLyy 8.Byy 8.G/yy	.	8.e/yy	.	-raz	vier-	.
16GG/Jkyy	16eJkyy 16Byy 16G/yy	.	16e/yy	.	pła-	-ge	.
4EE/yy	4eyy 4Byy 4G/yy	<	4e/yy	4ryyyy	-ka-	un	.
!	!LO:SIC:v:n=1:s=4f#	!	!	!	!	!	!
4BByy 4BBB/yy	4fyy 4d#Xyy 4Byy 4A/yy	[[	4f#X/yy	8.f#X\yy	-li	an-	.
.	.	.	.	16f#\yy	.	-ge	.
*	*	*	*v	*v	*	*	*
=71	=71	=71	=71	=71	=71	=71
8.ELyy 8.EE/yy	8.gyy 8.eyy 8.B/yy	.	(y8.g/yy	I	C'é-	.
16DKyy 16DD/yy	16fnKLyy 16A/yy	<	16fn/)yy	mo-	.	.
8.Eyy 8.EE/yy	8.eyy 8.G/yy	.	8.e/yy	-wi-	-ta-	.
16FnJkyy 16FFn/yy	16dnJkyy 16A/yy	[	16d/yy	-li	-it	.
8.GLyy 8.GG/yy	8.gLyy 8.eyy 8.c/yy	>	8.g/yy	z_xię-	E-	.
16GKyy 16GG/yy	16gKyy 16eyy 16c/yy	.	16g/yy	-ża-	-mi-	.
8.Gyy 8.GG/yy	8.gyy 8.dyy 8.B/yy	.	8.B/yy	-mi	-lia	.
16GJkyy 16GG/yy	16gJkyy 16dyy 16B/yy	]	16B/yy	pa-	Pla-	.
!!LO:PB:g=original
=72	=72	=72	=72	=72	=72	=72
*	*	*	*^	*	*	*
4Cyy 4CC/yy	8eyy 8c/yy	fy	4c/yy	2c\yy	-cie-	-ter	.
.	16eeLLyy 16e\yy	<	.	.	.	.	.
.	16eeJJy 16e\yy	.	.	.	.	.	.
4ryy	8eeLyy 8e\yy	.	4c/yy	.	-rze	.	.
.	8eeJyy 8e\yy	.	.	.	.	.	.
*	*tremolo	*	*	*	*	*	*
2ryy	8eeLyy 8e\yy	.	2ryy	2ryyyy	.	.	.
.	8eeyy 8e\yy	.	.	.	.	.	.
.	8eeyy 8e\yy	.	.	.	.	.	.
!	!LO:TX:a:t=[segno]:problem=na kresce taktowej	!	!	!	!	!	!
.	8eeJyy 8e\yy	[[	.	.	.	.	.
*	*Xtremolo	*	*	*	*	*	*
*	*	*	*v	*v	*	*	*
=73	=73	=73	=73	=73	=73	=73
!!!key: A
*k[f#c#g#]	*k[f#c#g#]	*	*k[f#c#g#]	*	*	*
*	*^	*	*	*	*	*
!	!LO:TX:a:t=au 4.me Couplet passez au signe.	!	!	!	!	!	!
4Byy 4E\yy	4g#yy 4d/yy	2ryyyy	.	1ryy	.	.	.
4Byy 4E\yy	8.g#Lyy 8.d/yy	.	.	.	.	.	.
.	16g#Jkyy 16d/yy	.	.	.	.	.	.
!	!LO:N:vis=8	!	!	!	!	!	!
4Fn\yy	8.a/Lyy	4d#X\yy	.	.	.	.	.
.	16qqa/LLyy	.	fzy	.	.	.	.
.	16qqb/JJyy	.	.	.	.	.	.
.	16a/Kyy	.	.	.	.	.	.
4Fyy 4FFn/yy	8.g#/yy	4d#yy 4B\yy	.	.	.	.	.
.	16a/Jkyy	.	.	.	.	.	.
*	*v	*v	*	*	*	*	*
=74	=74	=74	=74	=74	=74	=74
2.Eyy 2.EE/yy	2.byy 2.g#yy 2.eyy 2.B/yy	rfzy	2ryy	.	.	.
.	.	.	4ryy	.	.	.
4ryy	4ryy	.	8.g#/yy	Łzy	Le	.
.	.	.	16a/yy	ni	hé-	.
=75	=75	=75	=75	=75	=75	=75
4Ayy 4AA\yy	4ayy 4eyy 4c#/yy	mfy	4a/yy	je-	-ros	.
4ryy	4ryy	.	8.a#X/yy	-dnej	c'est	.
.	.	.	16b/yy	a	u-	.
!	!	!LO:DY:rj	!	!	!	!
4Eyy 4EE/yy	4byy 4g#yy 4e/yy	sfy	8.b/yy	te-	-ne	.
.	.	.	16b\yy	.	vier-	.
4ryy	4ryy	.	8.b#X\yy	-raz	-ge	.
.	.	.	16cc#X\yy	pła-	un	.
=76	=76	=76	=76	=76	=76	=76
4AAyy 4AAA/yy	4cc#yy 4ayy 4eyy 4c#/yy	fy	4cc#\yy	-ka-	an-	.
4AAyy 4AAA/yy	4cc#yy 4ayy 4eyy 4c#/yy	.	4cc#\yy	-li	-ge	.
4ryy	4ryy	py	4ryy	.	.	.
(y8e\Lyy	8ee\Lyy	.	8ee\yy	I	C'é-	.
8c#\J)yy	8cc#\Jyy	.	8cc#\yy	mo-	.	.
=77	=77	=77	=77	=77	=77	=77
*	*^	*	*	*	*	*
2F#\yy	4ayy 4f#/yy	2c#\yy	.	4a\yy	-wi-	-ta-	.
.	(y<8b/Lyy	.	.	8b\yy	-li	-it	.
.	8cc#/J)yy	.	.	8cc#\yy	z_xię-	E-	.
!	!LO:TX:b:t=ten	!	!	!	!	!	!
(y4Byy 4BB\yy	4ddyy 4byy 4f#yy 4d/yy	2ryyyy	sfy	4dd\yy	-ża-	-mi-	.
4E\)yy	8cc#Lyy 8g#yy 8eyy 8d/yy	.	>	8cc#\yy	-mi	-lia	.
.	8b/Jyy	.	]]	8b\yy	pa-	Pla-	.
*	*v	*v	*	*	*	*	*
=78	=78	=78	=78	=78	=78	=78
*	*	*	*^	*	*	*
(y4Eyy 4EE/yy	(y4byy 4g#yy 4eyy 4d/yy	.	4b/yy	2a\yy	-cie-	-ter	.
4Ayy 4AA\)yy	4ayy 4eyy 4c#/)yy	.	4a/yy	.	-rze	.	.
4ryy	4rgyy	.	2ryy	2ryyyy	.	.	.
8a>\Lyy	8eeL 8cc#/yy	.	.	.	.	.	.
8a>\Jyy	8eeJ 8cc#/yy	.	.	.	.	.	.
*	*	*	*v	*v	*	*	*
!!LO:PB:g=original
=79	=79	=79	=79	=79	=79	=79
4a>\yy	4eeyy 4cc#/yy	.	1ryyyy	.	.	.
8g#>\Lyy	2eeyy 2ddyy 2b/yy	.	.	.	.	.
8f##X>\Jyy	.	.	.	.	.	.
8g#>\Lyy	.	.	.	.	.	.
8e>\yy	.	.	.	.	.	.
!LO:ACC:color=brown	!	!	!	!	!	!
!LO:N:acc=n#	!	!	!	!	!	!
8f#X>\yy	4eeyy 4ddyy 4b/yy	.	.	.	.	.
8g#>\Jyy	.	.	.	.	.	.
=80	=80	=80	=80	=80	=80	=80
8a>\Lyy	4eeyy 4cc#/yy	.	1ryyyy	.	.	.
8g#>\yy	.	.	.	.	.	.
8a>\yy	4eeyy 4cc#/yy	.	.	.	.	.
8e>\Jyy	.	.	.	.	.	.
8c#>\Lyy	4rggyy	.	.	.	.	.
8e>\yy	.	.	.	.	.	.
8c#>\yy	8cc#Lyy 8a/yy	.	.	.	.	.
8A>\Jyy	8cc#Jyy 8a/yy	.	.	.	.	.
=81	=81	=81	=81	=81	=81	=81
8d>\Lyy	8bLyy 8a/yy	.	1ryyyy	.	.	.
8e>\Jyy	8byy 8a/yy	.	.	.	.	.
4fn>\yy	8byy 8a/yy	sfy	.	.	.	.
.	8bJyy 8a/yy	.	.	.	.	.
(y>8e>\Lyy	8bLyy 8a/yy	.	.	.	.	.
8d#X>\J)yy	8byy 8a/yy	.	.	.	.	.
4e>^\yy	8byy 8g#/yy	.	.	.	.	.
.	8bJyy 8g#/yy	.	.	.	.	.
!!LO:LB:g=original
=82	=82	=82	=82	=82	=82	=82
*	*^	*	*	*	*	*
4Ayy 4AA\yy	4ayy 4eyy 4c#/yy	4ryyyy	.	2ryy	.	.	.
4A@yy 4AA@\yy	4ayy 4eyy 4c#/yy	4c#\yy	.	.	.	.	.
2ryy	2ryy	2ryyyy	.	4ryy	.	.	.
*	*	*	*	*	*v:4	*	*
.	.	.	.	8.g#/yy	Z_ran-	.	.
.	.	.	.	16a/yy	-nym	.	.
*	*v	*v	*	*	*	*	*
=83	=83	=83	=83	=83	=83	=83
4Ayy 4AA\yy	4ayy 4eyy 4c#/yy	sfy	4a/yy	swi-	.	.
4ryy	4ryy	.	8.a#X/yy	-tem	.	.
.	.	.	16b/yy	dzwo-	.	.
4C#yy 4CC#/yy	4byy 4g#yy 4e/yy	.	4b\yy	-nio-	.	.
4ryy	4ryy	.	8.b#X\yy	-no	.	.
.	.	.	16cc#\yy	w_ka-	.	.
=84	=84	=84	=84	=84	=84	=84
4AAyy 4AAA/yy	4cc#yy 4ayy 4e/yy	.	4cc#\yy	-pli-	.	.
4AAyy 4AAA/yy	4cc#yy 4ayy 4e/yy	.	4cc#\yy	-cy	.	.
2ryy	2ryy	.	4ryy	.	.	.
.	.	.	8f#/yy	Juz	.	.
.	.	.	8f#/yy	przed	.	.
=85	=85	=85	=85	=85	=85	=85
*	*^	*	*	*	*	*
!LO:TX:a:t=ten&colon;	!	!	!	!	!	!	!
2BByy 2BBB/yy	4dd/yy	8f#\yy	sfy	4dd\yy	cha-	.	.
.	.	4d\yy	.	.	.	.	.
.	8cc#/Lyy	.	.	8cc#\yy	-tą	.	.
.	8b/Jyy	8d\yy	.	8b\yy	nie	.	.
4Eyy 4EE/yy	4cc#/yy	4ayy 4e\yy	.	4cc#\yy	by-	.	.
4Eyy 4EE/yy	8b/Lyy	4g#yy 4d\yy	<	8b\yy	-ło	.	.
.	8cc#/Jyy	.	[[	8cc#\yy	żoł-	.	.
*	*v	*v	*	*	*	*	*
=86	=86	=86	=86	=86	=86	=86
*	*	*	*^	*	*	*
!	!LO:S:s=1:note:problem=note-level slur	!	!	!	!	!	!
!LO:S:s=1:note:problem=note-level slur	!LO:S:s=2:note:problem=note-level slur	!	!	!	!	!	!
(y<4Eyy (y4EE/yy	(y<4byy (y<4g#yy (y<4d/yy	sfy	4b/yy	2a\yy	-nie-	.	.
4A)yy 4AA\)yy	4a)yy 4e)yy 4c#/)yy	.	4a/yy	.	-rza	.	.
!	!	!	!	!	!	!	!LO:DY:a
4ryy	4ryy	.	4ryy	2ryyyy	.	.	fy
8.g#>Lyy 8.e>\yy	8.b/Lyy	.	8b\yy	.	Bo	.	.
.	.	.	8b\yy	.	już	.	.
16g#>Jkyy 16e>\yy	16b/Jkyy	.	.	.	.	.	.
*	*	*	*v	*v	*	*	*
!!LO:LB:g=original
=87	=87	=87	=87	=87	=87	=87
4g#>yy 4e>\yy	4b/yy	.	4b/yy	Mo-	.	.
8d#X>\Lyy	4byy 4ayy 4f#/yy	.	8a/yy	-skal	.	.
8c##X>\Jyy	.	.	8g#/yy	był	.	.
8d#>\Lyy	4byy 4ayy 4f#/yy	.	4a/yy	w_tej	.	.
8B>\yy	.	.	.	.	.	.
!LO:N:acc=n#	!	!	!	!	!	!
8c#X>\yy	4byy 4ayy 4f#/yy	.	8a/yy	o-	.	.
8d#>\Jyy	.	.	8a/yy	-ko-	.	.
=88	=88	=88	=88	=88	=88	=88
8e>\Lyy	4byy 4g#/yy	.	4g#/yy	-li-	.	.
8d#X>\yy	.	.	.	.	.	.
8e>\yy	4byy 4g#/yy	.	4g#/yy	-cy	.	.
8B>\Jyy	.	.	.	.	.	.
8G#'\Lyy	4ryy	.	4ryy	.	.	.
8B'\yy	.	.	.	.	.	.
8G#'\yy	4e/yy	.	8e/yy	Przy-	.	.
8E'\Jyy	.	.	8e/yy	-szedł	.	.
=89	=89	=89	=89	=89	=89	=89
8A\Lyy	8f#Lyy 8e/yy	.	4cc#\yy	lud	.	.
8B\Jyy	8f#yy 8e/yy	.	.	.	.	.
4c#^\yy	8f#yy 8e/yy	.	8cc#\yy	wi-	.	.
.	8f#Jyy 8e/yy	.	8cc#\yy	-dzieć	.	.
8B\Lyy	8f#Lyy 8e/yy	.	4b\yy	zwło-	.	.
8A#\Jyy	8f#yy 8e/yy	.	.	.	.	.
!	!	!	!LO:SIC:v:s=8.d#/	!	!	!
4B^\yy	8f#yy 8d#X/yy	.	8.d/yy	-ki	.	.
.	8f#Jyy 8d#/yy	.	.	.	.	.
!	!	!	!LO:SIC:v:s=16d#/	!	!	!
.	.	.	16d/yy	ry-	.	.
=90	=90	=90	=90	=90	=90	=90
*	*	*	*^	*	*	*
!	!	!LO:HP:t=dim&colon;	!	!	!	!	!
8.G#yy 8.EL\yy	8.eLyy 8.B/yy	>	4e/yy	2e\yy	-ce-	.	.
16G#yy 16EK\yy	16eKyy 16B/yy	.	.	.	.	.	.
8.G#yy 8.E\yy	8.eyy 8.B/yy	.	4e/yy	.	-rza	.	.
16G#yy 16EJk\yy	16eJkyy 16B/yy	.	.	.	.	.	.
8G#yy 8EL\yy	4eyy 4B/yy	sfy	2ryy	2ryyyy	.	.	.
8D#X\yy	.	.	.	.	.	.	.
8E\yy	4eyy 4G#/yy	.	.	.	.	.	.
8Dn\Jyy	.	.	.	.	.	.	.
*	*	*	*v	*v	*	*	*
=91	=91	=91	=91	=91	=91	=91
!!!key: C
*k[]	*k[]	*	*k[]	*	*	*
*	*	*	*^	*	*	*
4Cyy 4CC\yy	4eyy 4cyy 4G</yy	.	4e/yy	4ryyyy	Na	.	.
8.CLyy 8.CC\yy	8.eLyy 8.cyy 8.G</yy	.	8.e/yy	4e\yy	pa-	.	.
16CJkyy 16CC\yy	16eJkyy 16cyy 16G</yy	.	16e/yy	.	.	.	.
4Cyy 4CC\yy	4eyy 4cyy 4G</yy	.	4e/yy	2ryyyy	-stu-	.	.
4Cyy 4CC\yy	(y8.dLyy 8.B/yy	.	8d/yy	.	-szym	.	.
.	.	.	8e/yy	.	tap-	.	.
.	16eJkyy 16c/)yy	.	.	.	.	.	.
*	*	*	*v	*v	*	*	*
=92	=92	=92	=92	=92	=92	=92
4BB\yy	4fyy 4dyy 4G</yy	.	4f/yy	-cza-	.	.
4GG\yy	8gLyy 8B<yy 8G</yy	.	8.g/yy	-nie	.	.
.	8d/Jyy	.	.	.	.	.
.	.	.	16d/yy	on	.	.
4C\yy	4eyy 4cyy 4G</yy	.	4e/yy	le-	.	.
4E\yy	4gyy 4cyy 4G</yy	.	4g/yy	-ży	.	.
!!LO:LB:g=original
=93	=93	=93	=93	=93	=93	=93
*^	*	*	*	*	*	*
4Fyy 4D\yy	2ryyyy	4gyy 4B</yy	.	4.g/yy	W_rę-	.	.
8.BB\Lyy	.	8.B<Lyy 8.F</yy	.	.	.	.	.
.	.	.	.	8B/yy	-ku	.	.
16GG\Jkyy	.	16B<Jkyy 16F</yy	.	.	.	.	.
4AA\yy	4ryyyy	8.c<Lyy 8.F#X</yy	.	4c/yy	krzyż	.	.
.	.	16qqc</LLyy	.	.	.	.	.
.	.	16qqd</JJyy	.	.	.	.	.
.	.	16c</Kyy	.	.	.	.	.
!	!LO:TX:b:t=P:stem.color=brown:problem	!	!	!	!	!	!
4D@/yy	8.AA\Lyy	8.B</yy	.	8B/yy	w_gło-	.	.
.	.	.	.	8c/yy	-wach	.	.
.	16F#y\Jkyy	16c</Jkyy	.	.	.	.	.
*v	*v	*	*	*	*	*	*
=94	=94	=94	=94	=94	=94	=94
8.GG\Lyy	4dyy 4Byy 4G</yy	.	4d/yy	sio-	.	.
16FF#X\Jkyy	.	.	.	.	.	.
8.GG\Lyy	8.dLyy 8.Byy 8.G</yy	.	8.d/yy	-dło	.	.
16GG\Jkyy	16dJkyy 16Byy 16G</yy	.	16d/yy	i	.	.
4GG\yy	4dyy 4Byy 4G</yy	.	4dSSS</yy	bur-	.	.
4BByy 4BBB\yy	4d#Xyy 4Byy 4A/yy	.	4d#X/yy	-ka	.	.
=95	=95	=95	=95	=95	=95	=95
!	!LO:TX:b:t=sotto voce.	!	!	!	!	!
4Eyy 4EE\yy	4eyy 4Byy 4G/yy	.	4.e/yy	A	.	.
8.ELyy 8.EE\yy	8.eLyy 8.Byy 8.G/yy	.	.	.	.	.
.	.	.	8e/yy	u	.	.
16EJkyy 16EE\yy	16eJkyy 16Byy 16G/yy	.	.	.	.	.
4Eyy 4EE\yy	4eyy 4Byy 4G/yy	.	4e/yy	bo-	.	.
!LO:S:s=1:note:problem=note-level slur	!LO:ACC:n=1:color=brown	!	!	!	!	!
(y<4BByy (y<4BBB\yy	4f#Xyy 4d#Xyy 4Byy 4A/yy	sfy <	4f#X/yy	-ku	.	.
=96	=96	=96	=96	=96	=96	=96
*	*	*	*^	*	*	*
8.ELyy 8.EE/))yy	4gyy 4eyy 4B/yy	[	8.g/yy	2ryyyy	kor-	.	.
16AA#X/Jkyy	.	py	16e/yy	.	de-	.	.
8.BB/Lyy	8.eLyy 8.Byy 8.G/yy	.	8.e/yy	.	-las	.	.
16GG/Jkyy	16eJkyy 16Byy 16G/yy	.	16e/yy	.	dwu-	.	.
4EE/yy	4eyy 4Byy 4G/yy	<	4e/yy	4ryyyy	-rur-	.	.
!	!LO:SIC:v:n=1:s=4f#	!	!	!	!	!	!
4BByy 4BBB/yy	4fyy 4d#Xyy 4Byy 4A/yy	[[	4f#X/yy	8.f#X\yy	-ka	.	.
.	.	.	.	16f#\yy	.	.	.
*	*	*	*v	*v	*	*	*
=97	=97	=97	=97	=97	=97	=97
8.ELyy 8.EE/yy	8.gyy 8.eyy 8.B/yy	.	(y8.g/yy	Lecz	.	.
16DKyy 16DD/yy	16fnKLyy 16A/yy	<	16fn/)yy	ten	.	.
8.Eyy 8.EE/yy	8.eyy 8.G/yy	.	8.e/yy	wodz	.	.
16FnJkyy 16FFn/yy	16dnJkyy 16A/yy	[	16d/yy	choć	.	.
8.GLyy 8.GG/yy	8.gLyy 8.eyy 8.c/yy	>	8.g/yy	w_żoł-	.	.
16GKyy 16GG/yy	16gKyy 16eyy 16c/yy	.	16g/yy	-nier-	.	.
8.Gyy 8.GG/yy	8.gyy 8.dyy 8.B/yy	.	8.B/yy	-skiej	.	.
16GJkyy 16GG/yy	16gJkyy 16dyy 16B/yy	]	16B/yy	o-	.	.
!!LO:PB:g=original
=98	=98	=98	=98	=98	=98	=98
*	*	*	*^	*	*	*
4Cyy 4CC/yy	8eyy 8c/yy	fy	4c/yy	2c\yy	-dzie-	.	.
.	16eeLLyy 16e\yy	<	.	.	.	.	.
.	16eeJJyy 16e\yy	.	.	.	.	.	.
4ryy	8eeLyy 8e\yy	.	4c/yy	.	-ży	.	.
.	8eeJyy 8e\yy	.	.	.	.	.	.
*	*tremolo	*	*	*	*	*	*
2ryy	8eeLyy 8e\yy	.	2ryy	2ryyyy	.	.	.
.	8eeyy 8e\yy	.	.	.	.	.	.
.	8eeyy 8e\yy	.	.	.	.	.	.
!	!LO:TX:a:t=[segno]:problem=na kresce taktowej	!	!	!	!	!	!
.	8eeJyy 8e\yy	[[	.	.	.	.	.
*	*Xtremolo	*	*	*	*	*	*
*	*	*	*v	*v	*	*	*
!!LO:LB:g=original
=99||	=99||	=99||	=99||	=99||	=99||	=99||
!!!key: A
*k[f#c#g#]	*k[f#c#g#]	*	*k[f#c#g#]	*	*	*
!	!	!LO:DY:rj	!LO:TX:a:t=[segno]	!	!	!
4G#\	(>8eL 8B/	sf	8e/	ja-	.	.
.	8eJ 8B/	.	8e/	-kie	.	.
=100	=100	=100	=100	=100	=100	=100
[2A\	8r	.	4f#/	pięk-	.	.
!	!	!LO:HP:t=cres	!	!	!	!
.	8c#/L	<	.	.	.	.
.	8f#/	.	8f#/	-ne	.	.
.	8c#/J	.	8f#/	dzie-	.	.
[2B 2A\]	8e/L	.	4b/	-wi-	.	.
.	8d#X/	.	.	.	.	.
.	8b/	.	8b/	-cze	.	.
.	8d#/J	.	8b/	ma	.	.
=101	=101	=101	=101	=101	=101	=101
*^	*	*	*	*	*	*
2.B_ 2.G#\	2ryy	8dn/L	.	4b/	li-	.	.
.	.	8b/	.	.	.	.	.
.	.	8g#/	.	4d/	-ca	.	.
.	.	8e/J	.	.	.	.	.
.	4ryy	8d/L	.	4r	.	.	.
.	.	8e/	.	.	.	.	.
4B] 4G#/	4E\	8B/	.	8d/	ja-	.	.
.	.	8e/J	.	8d/	-ką	.	.
*v	*v	*	*	*	*	*	*
=102	=102	=102	=102	=102	=102	=102
*	*^	*	*	*	*	*
2A\	8c#/L	2ryy	.	4.c#/	pierś	.	.
.	8e/	.	.	.	.	.	.
.	8a/	.	.	.	.	.	.
.	8e/J	.	.	8e/	ach	.	.
4C#\	4a/	8e#X\L	.	8a/	to	.	.
.	.	8c#\	.	8e#X/	by-	.	.
4D\	4b/	8f#\	.	8f#/	-ła	.	.
.	.	8d\J	.	8b/	dzie-	.	.
*	*v	*v	*	*	*	*	*
!!LO:LB:g=original
=103	=103	=103	=103	=103	=103	=103
4en> 4c#> 4E\	4a/	.	4a/	-wi-	.	.
!	!	!	!LO:SIC:v:s=4g#/	!	!	!
4e> 4B> 4E\	4g#/)	.	4a/	-ca	.	.
2r	2r	.	4r	.	.	.
.	.	.	8g#/	to	.	.
.	.	.	8a/	Lit-	.	.
=104	=104	=104	=104	=104	=104	=104
!	!	!LO:DY:rj	!	!	!	!
4A 4AA\	4a 4e 4c#/	f	4a/	-win-	.	.
4r	4r	.	8.a#X/	-ka	.	.
.	.	.	16b\	dzie-	.	.
4E 4EE/	4b 4g# 4e/	.	4b\	-wi-	.	.
4r	4r	.	8.b#X\	-ca	.	.
.	.	.	16cc#\	bo-	.	.
=105	=105	=105	=105	=105	=105	=105
4AA 4AAA/	4cc# 4a 4e 4c#/	.	4cc#\	-ha-	.	.
4AA 4AAA/	4cc# 4a 4e 4c#/	.	4cc#\	-ter	.	.
2r	2r	.	4r	.	.	.
.	.	.	8.ee\	wodz	.	.
.	.	.	16cc#\	pow-	.	.
=106	=106	=106	=106	=106	=106	=106
*	*^	*	*	*	*	*
(2F#\	4a 4f#/	2c#\	.	4a\	-stań-	.	.
.	(<8b/L	.	.	8.b\	-cow	.	.
.	8cc#/J)	.	.	.	.	.	.
.	.	.	.	16cc#\	E-	.	.
!	!LO:TX:b:t=ten	!	!	!	!	!	!
4B 4BB\)	4dd/	4b 4f# 4d\	.	4dd\	-mi-	.	.
4E\	8cc#/L	4g# 4e 4d\	.	8.cc#\	-li-	.	.
.	8b/J	.	.	.	.	.	.
.	.	.	.	16b\	-a	.	.
=107	=107	=107	=107	=107	=107	=107	=107
!	!	!	!LO:DY:rj	!	!	!	!
(4E 4EE/	4b/	(4g# 4e 4d\	sf	4b\	Pla-	.	.
4A 4AA\)	4a/	4e 4c#\)	.	4a\	-ter.	.	.
2r	2r	2ryy	.	2r	.	.	.
*	*v	*v	*	*	*	*	*
==	==	==	==	==	==	==
*-	*-	*-	*-	*-	*-	*-
!!!system-decoration: <s1>{(s2,s3)}
!!!RDF**kern: > = above
!!!RDF**kern: < = below
!!!RDF**kern: @ = marked note, color=brown
!!!ENC: Arkadiusz Malec
!!!END: 2022-02-19
!!!ENC: Andrzej Kubiczek
!!!END: 2022-02-25
